X:1
T:D minor         Amos Pilsbury, 1799
T:Charles Wesley, 1742 (John 1:29)                76. 76. D.
T:Franklin
T:Transcribed from  The United States Sacred Harmony, 1799.
%%score [ 1 2 3 4 ]
L:1/8
Q:1/4=100
M:4/4
K:F
V:1 treble nm="Tr." snm="Tr."
V:2 treble nm="C." snm="C."
V:3 treble-8 nm="T." snm="T."
V:4 bass nm="B." snm="B."
V:1
 d4 | (f3 e d2) ^c2 | d4 (c2 A2) | A4 A2 A2 | (c3 d c2) d2 | d4 B4 | A6 d2 | (f3 e d2) ^c2 | %8
w: 1.~Je-|sus,~ _ _ great|Re- dee- *|mer, hear A|fee- * * ble|sin- ner's|cry, Thou|in~ _ _ my|
w: 2.~Thee|all- * * love-|ly as~ _|thou art, Should|I~ _ _ pro-|fess to|love, Sure-|ly~ _ _ my|
 d4 (c2 A2) | A4 A2 A2 | (c2 A2) (d2 B2) | A4 A4 | A8 |: A4 A2 A2 | (c3 B A2) c2 | d4 d2 ^c2 | %16
w: be- half~ _|ap- pear, And|bring * sal- *|va- tion|nigh:|To my Lord|what~ _ _ can|I say? Sa-|
w: re- bel- *|lious heart The|false- * hood *|would dis-|prove:|Thee my heart|can- * * not|o- bey Till|
 (d2 f2) (e2 d2) | (c3 B A2) ^G2 | A6 F2 | A6 A2 | (d3 ^c d2) e2 | f4 e2 e2 | (f2 d2) (e2 c2) | %23
w: vior, * of *|thee~ _ _ I|need; Take,|O take|my~ _ _ sins|a- way, And|make * me *|
w: from * all *|e- * * vil|freed: *|||||
 c6 d2 | c6 A2 | (f>e d2) (c2 d2) | c4 A4 | A8 :| %28
w: free in-|deed, And|make~ _ _ me *|free in-|deed.|
w: |||||
V:2
 D4 | (D3 E F2) G2 | A4 A4 | A4 A2 A2 | (A3 G F2) G2 | A4 G4 | E6 D2 | (D3 E F2) G2 | A4 A4 | %9
w: 3.~Should|I~ _ _ say,|that aught|in me Of|good~ _ _ now|doth a-|bide, Self-|con- * * demned|I now|
w: 4.~No|de- * * sire,|or will|have I Thy|mer- * * cy|to em-|brace; From|thy~ _ _ arms|of love|
 A4 A2 A2 | (A2 F2) (F2 G2) | [DF]4 [^CE]4 | D8 |: D4 D2 D2 | (F3 G A2) A2 | A4 A2 G2 | A4 G4 | %17
w: should be; My|all~ _ is~ _|self and|pride.|Guil- ty, Guil-|ty~ _ _ must|I say, No-|thing have|
w: I fly, And|slight~ _ thy~ _|pro- ferred|grace:|But thou didst|my~ _ _ ran-|som pay, Thy|blood for|
 (F3 E F2) D2 | E6 D2 | F6 D2 | G6 E2 | A4 A2 A2 | (A2 F2) (G2 A2) | G6 F2 | E6 E2 | %25
w: I~ _ _ to|plead; Take,|O take|my sins|a- way, And|make * me *|free in-|deed, And|
w: me~ _ _ was|shed: *|||||||
 (F>G A2) (A2 G2) | F4 ^C4 | D8 :| %28
w: make~ _ _ me *|free in-|deed.|
w: |||
V:3
 A4 | (d3 ^c d2) e2 | (f2 d2) (e2 ^c2) | d4 d2 f2 | (e3 d c2) B2 | A4 G4 | A6 A2 | (d3 ^c d2) e2 | %8
w: 5.~Thy|sal- * * va-|tion * to *|ob- tain, Out|of~ _ _ my-|self I|go; Free-|ly~ _ _ thou|
w: 6.~Not|be- * * cause|I * will- *|ing am, On|me~ _ _ this|grace be|showed; But|thou~ _ _ art|
 (f2 d2) (e>d c2) | d4 d2 f2 | (e2 A2) (d2 G2) | F4 E4 | D8 |: F4 F2 D2 | (A3 B c2) A2 | d4 d2 e2 | %16
w: must * heal * *|my pain, Thy|un- * bought *|mer- cy|show:|For my- self|I~ _ _ can-|not pray; Thy|
w: th'a- * to- * *|ning Lamb, There-|fore * ap- *|ply thy|blood;|There- fore Lord|no~ _ _ more|de- lay; So|
 (f2 d2) (c2 d2) | (A3 G F2) ^G2 | A6 A>=B | c6 A2 | (d3 e f2) e>d | d4 c2 c2 | (d2 A2) (B2 A2) | %23
w: spi- * rit *|in- * * ter-|cede: Take, *|O take|my~ _ _ sins *|a- way, And|make * me *|
w: heal * my *|soul,~ _ _ and|lead; * *|||||
 G6 [GB]2 | A6 c2 | (d>e f2) (A2 G2) | F4 E4 | D8 :| %28
w: free in-|deed, And|make~ _ _ me *|free in-|deed.|
w: |||||
V:4
 D,4 | D,6 E,2 | F,4 A,4 | D,4 D,2 D,2 | (A,3 G, F,2) E,2 | D,4 E,4 | A,,6 D,2 | D,6 E,2 | %8
 F,4 A,4 | D,4 D,2 D,2 | (A,2 F,2) (D,2 G,2) | A,4 A,,4 | D,8 |: D,4 D,2 D,2 | (A,3 G, F,2) C,2 | %15
 D,4 D,2 E,2 | (F,2 D,2) (A,2 G,2) | (F,3 E, D,2) E,2 | %18
"^_________________________________________________________\nEdited by B. C. Johnston, 2017.\n   1. Measure 15, \nBass\n: last note changed from C# to C, like \nTreble\n.\n   2. Measure 18, \nTenor\n: last note changed from G to G#, like \nTreble\n.\n   3. Measure 24, Bass: first note changed from C# to C, like Treble." A,,6 C,2 | %19
 F,6 D,2 | G,6 A,2 | F,4 C,2 A,,2 | D,4 (E,2 D,2) | C,6 D,2 | A,,6 A,,2 | D,4 (F,2 G,2) | %26
 A,4 A,,4 | D,8 :| %28

